X:165
T: Luke O'Malley's
C: Luke O'Malley
M: 4/4
L: 1/8
S: Luke O'Malley vol 1
Z: B.Black
R: hornpipe
K: A
ED | CEAc ecAc | eaga ecAc | dB^AB GE^DE |\
FDB,D G,2 ED |
CEAc ecAc | eaga ecAc | dB^AB GE^DE |\
(3DED B,G, A,2 :|
c2 | cF^EF GECE | FDCD B,2 ED | CEAc ecAc |\
B^dfd e2 E=D |
CEAc ecAc | eafa ecAc | dB^AB GE^DE |\
(3DED B,G, A,2 :|
